src/Assests/SVG/social/stackoverflow.svg

<svg width="32" height="32" viewBox="0 0 32 32" fill="none" xmlns="http://www.w3.org/2000/svg"><g clip-path="url(#a)"><path d="M16 0C7.164 0 0 7.164 0 16s7.164 16 16 16 16-7.164 16-16S24.836 0 16 0Zm1.1587 7.8707 4.152 6.0893-1.3.8867-4.1534-6.0894 1.3014-.8866Zm-3.7494 3.4466 6.4534 3.784-.8 1.356-6.456-3.784.8026-1.356Zm-1.7013 3.632 7.2173 2.028-.388 1.436-7.2373-1.944.408-1.52Zm-.784 3.2814 7.5827.7586-.1374 1.4934-7.588-.684.1427-1.568Zm-.2253 2.88h7.78v1.556h-7.78v-1.556Zm10.6346 4.2226H8v-8h1.3333V24H20v-6.6667h1.3333v8Zm.26-11.4693-1.26-7.2613 1.5494-.2694 1.2626 7.2614-1.552.2693Z" fill="#000"/></g><defs><clipPath id="a"><path fill="#fff" d="M0 0h32v32H0z"/></clipPath></defs></svg>

<svg width="32" height="32" viewBox="0 0 32 32" fill="none" xmlns="http://www.w3.org/2000/svg">
<g clip-path="url(#clip0_99_517)">
<path d="M16 0C7.164 0 0 7.164 0 16C0 24.836 7.164 32 16 32C24.836 32 32 24.836 32 16C32 7.164 24.836 0 16 0ZM17.1587 7.87067L21.3107 13.96L20.0107 14.8467L15.8573 8.75733L17.1587 7.87067ZM13.4093 11.3173L19.8627 15.1013L19.0627 16.4573L12.6067 12.6733L13.4093 11.3173ZM11.708 14.9493L18.9253 16.9773L18.5373 18.4133L11.3 16.4693L11.708 14.9493ZM10.924 18.2307L18.5067 18.9893L18.3693 20.4827L10.7813 19.7987L10.924 18.2307ZM10.6987 21.1107H18.4787V22.6667H10.6987V21.1107ZM21.3333 25.3333H8V17.3333H9.33333V24H20V17.3333H21.3333V25.3333ZM21.5933 13.864L20.3333 6.60267L21.8827 6.33333L23.1453 13.5947L21.5933 13.864Z" fill="#000"/>
</g>
<defs>
<clipPath id="clip0_99_517">
<rect width="32" height="32" fill="white"/>
</clipPath>
</defs>
</svg>
